assets/support/badge.svg

<svg width="50" height="50" viewBox="0 0 50 50" fill="none" xmlns="http://www.w3.org/2000/svg">
<rect width="50" height="50" rx="25" fill="#E8F2EE"/>
<path d="M23.8333 13.3333L32.3477 15.9933C32.5851 16.0674 32.7927 16.2155 32.94 16.416C33.0874 16.6164 33.1668 16.8587 33.1667 17.1075V19.1666H35.5C35.8094 19.1666 36.1062 19.2896 36.325 19.5084C36.5438 19.7271 36.6667 20.0239 36.6667 20.3333V22.6666H21.5V20.3333C21.5 20.0239 21.6229 19.7271 21.8417 19.5084C22.0605 19.2896 22.3572 19.1666 22.6667 19.1666H30.8333V17.965L23.8333 15.7763L16.8333 17.965V26.603C16.8332 27.3172 16.997 28.022 17.3121 28.663C17.6272 29.304 18.0853 29.8641 18.651 30.3001L18.8715 30.4588L23.8333 33.8433L28.2457 30.8333H22.6667C22.3572 30.8333 22.0605 30.7104 21.8417 30.4916C21.6229 30.2728 21.5 29.9761 21.5 29.6666V25H36.6667V29.6666C36.6667 29.9761 36.5438 30.2728 36.325 30.4916C36.1062 30.7104 35.8094 30.8333 35.5 30.8333L31.7433 30.8345C31.2918 31.4295 30.7435 31.9545 30.11 32.3861L23.8333 36.6666L17.5567 32.3873C16.6146 31.745 15.8437 30.8823 15.311 29.8742C14.7783 28.8661 14.4999 27.7432 14.5 26.603V17.1075C14.5001 16.8589 14.5797 16.6169 14.727 16.4167C14.8743 16.2165 15.0817 16.0686 15.319 15.9945L23.8333 13.3333Z" fill="#5BB5A2"/>
</svg>

<svg width="50" height="50" fill="none" xmlns="http://www.w3.org/2000/svg"><rect width="50" height="50" rx="25" fill="#E8F2EE"/><path d="m23.833 13.333 8.515 2.66a1.166 1.166 0 0 1 .819 1.115v2.059H35.5a1.167 1.167 0 0 1 1.167 1.166v2.334H21.5v-2.334a1.166 1.166 0 0 1 1.167-1.166h8.166v-1.202l-7-2.189-7 2.189v8.638a4.668 4.668 0 0 0 1.818 3.697l.22.159 4.962 3.384 4.413-3.01h-5.58a1.167 1.167 0 0 1-1.166-1.166V25h15.167v4.667a1.167 1.167 0 0 1-1.167 1.166l-3.757.002c-.451.595-1 1.12-1.633 1.551l-6.277 4.28-6.276-4.279a7 7 0 0 1-3.057-5.784v-9.495a1.166 1.166 0 0 1 .819-1.114l8.514-2.66Z" fill="#5BB5A2"/></svg>
